X:1
T:Title
%%score [ ( 1 2 ) ( 3 4 ) ] { ( 5 6 ) | ( 7 8 ) }
L:1/8
Q:1/4=120
M:4/4
K:D
V:1 treble nm="Midi_74" snm=" "
V:2 treble 
V:3 bass nm="Midi_74"
V:4 bass 
V:5 treble nm="Org."
V:6 treble 
V:7 bass 
V:8 bass 
V:1
 (F6 G2) | (B2 A2) (G2 F2) |{F} E8 || (A6 G2) | F4 (^G2 A2) | %5
"^William Henry Havergal\n(1793-1870)" c4 B4 | A8 || (B6 c2) | (e2 d2) (c2 B2) |{B} A8 || %10
 (d6 =c2) | B4 (^c2 d2) | F4 E4 | D8 |] %14
V:2
 (D6 E2) | (G2 F2) (E2 D2) |{D} C8 || E8 | D4 (D2 E2) | E4 (E2 D2) | C8 || D8 | G,4 (A,2 B,C) | %9
 D8 || (D6 A2) | G4 (G2 F2) | D4 C4 | D8 |] %14
V:3
 D8 | (D2 F,2) (G,2 ^G,2) | A,8 || A,8 | A,4 (D2 CB,) | A,4 ^G,4 | A,8 || (G,6 A,2) | %8
 (C2 B,2) (A,2 G,2) |{G,} F,8 || A,8 | G,4 (G,2 A,2) | A,4 (A,2 G,2) | F,8 |] %14
V:4
 D,8 | D,4 D,4 | A,8 || C,8 | (D,2 C,2) (B,,2 A,,2) | E,4 E,4 | A,,8 || G,,8 | G,,4 G,,4 | D,8 || %10
 F,8 | (G,2 F,2) (E,2 D,2) | A,4 A,,4 | D,8 |] %14
V:5
 F6 G2 | B2 A2 G2 F2 |{F} E8 || A6 G2 | F4 ^G2 A2 | c4 B4 | A8 || B6 c2 | e2 d2 c2 B2 |{B} A8 || %10
 d6 =c2 | B4 ^c2 d2 | F4 E4 | D8 |] %14
V:6
 D6 E2 | G2 F2 E2 D2 |{D} C8 || [A,E]8 | D4 D2 C2 | [EA]4 [D^G]4 | C8 || G6 A2 | c2 B2 A2 F2 | %9
{G} F8 || [DA]8 | G4 G2 F2 | D4 C4 | D8 |] %14
V:7
 D,8 | D,4 D,4 | A,8 || C,8 | D,2 C,2 B,,2 A,,2 | E,4 E,4 | A,,8 || x8 | x8 | x8 || x8 | x8 | %12
 x4 A,2 G,2 | F,8 |] %14
V:8
 x8 | x8 | x8 || x8 | x8 | x8 | x8 || G,,8 | G,,4 G,,4 | D,8 || F,8 | G,2 F,2 E,2 D,2 | A,4 A,,4 | %13
 D,8 |] %14

